usr/share/icons/biglinux-icons-material/symbolic/actions/chat-symbolic.svg

<svg width="16px" height="16px" version="1.1">
 <path class="ColorScheme-Text" d="m2 1c-1.108 0-2 0.892-2 2v8c0 1.108 0.892 2 2 2h1.522l2.478 3 2-3h6c1.108 0 2-0.892 2-2v-8c0-1.108-0.892-2-2-2zm0 1h12c0.554 0 1 0.446 1 1v8c0 0.554-0.446 1-1 1h-6.434l-1.566 2.4-1.966-2.4h-2.034c-0.554 0-1-0.446-1-1v-8c0-0.554 0.446-1 1-1z" fill="#363636"/>
</svg>

<svg width="16" height="16"><path fill="#dedede" d="M2 1C.892 1 0 1.892 0 3v8c0 1.108.892 2 2 2h1.522L6 16l2-3h6c1.108 0 2-.892 2-2V3c0-1.108-.892-2-2-2zm0 1h12c.554 0 1 .446 1 1v8c0 .554-.446 1-1 1H7.566L6 14.4 4.034 12H2c-.554 0-1-.446-1-1V3c0-.554.446-1 1-1z" class="ColorScheme-Text"/></svg>
